img/icons/arrow_down_violet.svg

<svg width="14" height="8" viewBox="0 0 14 8" fill="none" xmlns="http://www.w3.org/2000/svg">
<path d="M2.63679 0.292893C2.24627 -0.0976311 1.6131 -0.0976311 1.22258 0.292893C0.832056 0.683417 0.832056 1.31658 1.22258 1.70711L2.63679 0.292893ZM7.42969 6.5L6.72258 7.20711C7.1131 7.59763 7.74627 7.59763 8.13679 7.20711L7.42969 6.5ZM13.6368 1.70711C14.0273 1.31658 14.0273 0.683417 13.6368 0.292893C13.2463 -0.0976311 12.6131 -0.0976311 12.2226 0.292893L13.6368 1.70711ZM1.22258 1.70711L6.72258 7.20711L8.13679 5.79289L2.63679 0.292893L1.22258 1.70711ZM8.13679 7.20711L13.6368 1.70711L12.2226 0.292893L6.72258 5.79289L8.13679 7.20711Z" fill="#2C4661"/>
</svg>

<svg width="14" height="8" fill="none" xmlns="http://www.w3.org/2000/svg"><path d="M2.637.293a1 1 0 10-1.414 1.414L2.637.293zM7.43 6.5l-.707.707a1 1 0 001.414 0L7.43 6.5zm6.207-4.793A1 1 0 0012.223.293l1.414 1.414zm-12.414 0l5.5 5.5 1.414-1.414-5.5-5.5-1.414 1.414zm6.914 5.5l5.5-5.5L12.223.293l-5.5 5.5 1.414 1.414z" fill="#2C4661"/></svg>
